svg/emoji_u1f9db_200d_2642.svg

<svg width="128" height="128" xmlns="http://www.w3.org/2000/svg" xmlns:xlink="http://www.w3.org/1999/xlink"><defs><path id="a" d="M4 4h120v120H4z"/></defs><clipPath id="b"><use xlink:href="#a" overflow="visible"/></clipPath><g clip-path="url(#b)"><linearGradient id="c" gradientUnits="userSpaceOnUse" x1="4" x2="124" y1="93.072" y2="93.072"><stop offset=".003" stop-color="#4e4e4e"/><stop offset=".152" stop-color="#484848"/><stop offset=".427" stop-color="#373838"/><stop offset=".796" stop-color="#1c1d1d"/><stop offset="1" stop-color="#010101"/></linearGradient><path d="M4 74.82s23.95-9.01 60-8.84c17.58.08 37.33 3.02 60 8.84 0 0-23.39 45.35-60 45.35S7.92 83.79 4 74.82z" fill="url(#c)"/></g><g clip-path="url(#b)"><linearGradient id="d" gradientUnits="userSpaceOnUse" x1="63.864" x2="63.864" y1="67.478" y2="109.96"><stop offset=".003" stop-color="#e51e25"/><stop offset=".299" stop-color="#df1e25"/><stop offset=".565" stop-color="#d01e25"/><stop offset=".819" stop-color="#ba1e23"/><stop offset="1" stop-color="#a51e22"/></linearGradient><path d="M63.83 110.33c-30.67 0-50.61-21.85-57.69-34.67 5.85-1.92 27.19-8.19 56.82-8.19 19.81 0 39.52 2.76 58.63 8.2-5.11 7.14-26.84 34.66-57.76 34.66z" fill="url(#d)"/><path d="M63 66v2.98c19 0 37.79 2.54 56.11 7.56-6.71 8.86-27.15 32.29-55.26 32.29-14.91 0-28.45-5.01-40.26-14.88-7.85-6.57-12.77-13.53-15.18-17.44 2.7-.83 6.96-2.03 12.52-3.22 9.22-1.97 24.02-4.32 42.05-4.32l.02-3m-.04.01C27.41 65.98 4 74.82 4 74.82c3.92 7.81 23.23 37.01 59.83 37.01S124 74.82 124 74.82a215.328 215.328 0 0 0-61.04-8.84z" fill="#bc2026"/></g><g clip-path="url(#b)"><linearGradient id="e" gradientUnits="userSpaceOnUse" x1="64" x2="64" y1="97.5" y2="130.5"><stop offset=".003" stop-color="#4e4e4e"/><stop offset=".152" stop-color="#484848"/><stop offset=".427" stop-color="#373838"/><stop offset=".796" stop-color="#1c1d1d"/><stop offset="1" stop-color="#010101"/></linearGradient><path d="M13.5 130.5v-9.51c0-17.29 27.21-23.46 50.5-23.49h.14c13.39 0 25.82 2.15 35.01 6.05 7 2.98 15.35 8.42 15.35 17.44v9.51h-101z" fill="url(#e)"/><path d="M64.14 99c24.28 0 48.86 7.55 48.86 21.99V129H15v-8.01c0-6.95 4.88-12.47 14.52-16.42C38.26 100.99 50.51 99.02 64 99h.14m0-3H64c-25.65.03-52 7.1-52 24.99V132h104v-11.01C116 104.13 89.9 96 64.14 96z" fill="#414143"/></g><g clip-path="url(#b)"><path d="M63.17 107.23c-4 0-7.26-3.22-7.26-7.17v-8.98h16.16v8.98c0 3.96-3.25 7.17-7.26 7.17h-1.64z" fill="#e59825"/><path d="M71.08 92.08v7.98c0 3.4-2.81 6.17-6.26 6.17h-1.65c-3.45 0-6.26-2.77-6.26-6.17v-7.98h14.17m2-2H54.92v9.98c0 4.51 3.7 8.17 8.26 8.17h1.65c4.56 0 8.26-3.66 8.26-8.17v-9.98h-.01z" fill="#d08229"/></g><path clip-path="url(#b)" fill="#fff" d="M55 106l-6.83 20H79.5L73 106z"/><path d="M12 120.99V132h104v-11.01C116 104.1 89.81 95.97 64 96c-25.65.03-52 7.1-52 24.99z" clip-path="url(#b)" fill="none"/><path d="M12.54 121.29v11.01h102.93v-11.01c0-16.89-25.69-25.65-51.55-25.6-25.63.06-51.38 7.71-51.38 25.6z" clip-path="url(#b)" fill="none"/><g clip-path="url(#b)"><path d="M36.67 72.26c-5.36 0-9.71-4.67-9.71-10.41s4.36-10.41 9.71-10.41h54.65c5.36 0 9.71 4.67 9.71 10.41s-4.36 10.41-9.71 10.41H36.67z" fill="#e59825"/><path d="M91.33 52.43c4.8 0 8.71 4.22 8.71 9.41s-3.91 9.41-8.71 9.41H36.67c-4.8 0-8.71-4.22-8.71-9.41s3.91-9.41 8.71-9.41h54.66m0-2H36.67c-5.89 0-10.71 5.14-10.71 11.41 0 6.28 4.82 11.41 10.71 11.41H91.32c5.89 0 10.71-5.14 10.71-11.41.01-6.27-4.81-11.41-10.7-11.41z" fill="#d08229"/></g><g clip-path="url(#b)"><linearGradient id="f" gradientUnits="userSpaceOnUse" x1="64" x2="64" y1="94.591" y2="12.825"><stop offset="0" stop-color="#fcb316"/><stop offset=".025" stop-color="#fcb417"/><stop offset=".316" stop-color="#fec11f"/><stop offset=".63" stop-color="#ffc926"/><stop offset="1" stop-color="#ffcb28"/></linearGradient><path d="M64 95.27c-15.66 0-32.52-12.14-32.52-38.81 0-12.38 3.56-23.79 10.02-32.13 6.05-7.8 14.25-12.27 22.5-12.27s16.45 4.47 22.5 12.27c6.46 8.34 10.02 19.75 10.02 32.13 0 12.09-3.51 22.19-10.14 29.21-5.86 6.19-13.81 9.6-22.38 9.6z" fill="url(#f)"/><path d="M64 13.07c7.94 0 15.85 4.33 21.71 11.88 6.33 8.16 9.81 19.35 9.81 31.52 0 11.83-3.41 21.7-9.87 28.52-5.67 5.99-13.36 9.29-21.65 9.29s-15.98-3.3-21.65-9.29c-6.46-6.82-9.87-16.69-9.87-28.52 0-12.16 3.49-23.35 9.81-31.52C48.15 17.4 56.06 13.07 64 13.07m0-2c-17.4 0-33.52 18.61-33.52 45.39 0 26.64 16.61 39.81 33.52 39.81S97.52 83.1 97.52 56.46c0-26.78-16.12-45.39-33.52-45.39z" fill="#ed9f21"/></g><g clip-path="url(#b)"><path d="M39.99 50.73s.13-.19.38-.51c.07-.08.12-.16.22-.26.11-.11.23-.22.37-.34.14-.12.28-.24.43-.38.15-.13.31-.23.48-.35.17-.11.34-.24.53-.35.19-.1.4-.21.6-.32.21-.12.43-.21.66-.3.23-.09.47-.18.71-.27.49-.14 1-.29 1.54-.36.53-.1 1.08-.11 1.63-.14.55.03 1.09.03 1.63.14.53.07 1.05.22 1.54.36.24.08.48.17.71.27.23.09.45.18.66.3.21.11.41.22.6.32.19.11.36.24.53.35.17.12.33.22.47.34.14.12.27.24.4.35.12.11.24.21.34.31.1.1.18.21.26.29.31.36.46.57.46.57.51.7.35 1.69-.36 2.19-.43.31-.96.37-1.43.21l-.29-.1s-.19-.07-.49-.2c-.08-.03-.15-.07-.25-.11-.1-.03-.19-.07-.3-.11-.21-.08-.44-.17-.7-.25-.13-.04-.26-.09-.4-.13-.14-.03-.28-.07-.43-.11l-.22-.06c-.08-.01-.15-.03-.23-.04-.16-.03-.31-.07-.47-.1-.33-.04-.66-.11-1-.12-.34-.04-.69-.03-1.03-.05-.35.02-.7.01-1.03.05-.34.02-.67.09-1 .12-.16.03-.31.07-.47.1-.08.01-.16.03-.23.04l-.22.06c-.15.04-.29.07-.43.11-.14.04-.27.09-.4.13-.13.04-.25.08-.37.11-.1.04-.2.07-.29.1l-.27.09c-.1.04-.2.1-.29.14-.36.18-.57.27-.57.27-.83.34-1.77-.05-2.11-.87-.24-.48-.16-1.06.13-1.49z" fill="#6e4d42"/><ellipse cx="47.56" cy="58.81" rx="4.93" ry="5.1" fill="#414141"/><g><path d="M86.05 53.13s-.22-.09-.57-.27c-.09-.04-.19-.1-.29-.14-.09-.02-.18-.06-.27-.09-.09-.03-.19-.07-.29-.1-.12-.04-.24-.07-.37-.11-.13-.04-.26-.09-.4-.13-.14-.04-.28-.07-.43-.11l-.22-.06c-.08-.01-.15-.03-.23-.04-.16-.03-.31-.07-.47-.1-.33-.04-.66-.11-1-.12-.34-.04-.69-.03-1.03-.05-.35.02-.7.01-1.03.05-.34.02-.67.09-1 .12-.16.03-.31.07-.47.1-.08.01-.16.03-.23.04l-.22.06c-.15.04-.29.08-.43.11-.14.04-.27.09-.4.13-.26.07-.49.16-.7.25-.11.04-.2.08-.3.11-.09.04-.17.08-.25.11-.3.13-.49.2-.49.2l-.28.1c-.82.29-1.72-.15-2-.97-.17-.5-.08-1.03.21-1.44 0 0 .16-.22.46-.57.08-.09.16-.19.26-.29.1-.1.22-.2.34-.31.12-.11.26-.23.4-.35.14-.12.31-.22.47-.34.17-.12.34-.24.53-.35.19-.1.4-.21.6-.32.21-.12.43-.21.66-.3.23-.09.46-.18.71-.27.49-.14 1-.29 1.54-.36.53-.1 1.08-.11 1.63-.14.55.03 1.09.03 1.63.14.53.06 1.05.22 1.54.36.24.08.48.17.71.27.23.09.45.18.66.3.21.11.41.22.6.32.19.11.36.24.53.35.17.12.32.22.48.35.15.13.3.26.43.38s.26.23.37.34c.09.1.15.18.22.26.25.31.38.51.38.51.5.74.31 1.74-.43 2.25-.49.28-1.07.32-1.56.12z" fill="#6e4d42"/><ellipse cx="80.44" cy="58.81" rx="4.93" ry="5.1" fill="#414141"/></g></g><path d="M67.86 68.06c-.11-.04-.21-.07-.32-.08h-7.07c-.11.01-.22.04-.32.08-.64.26-.99.92-.69 1.63.3.71 1.71 2.69 4.55 2.69s4.25-1.99 4.55-2.69c.29-.71-.06-1.37-.7-1.63z" clip-path="url(#b)" fill="#e59825"/><path d="M72.42 76.14c-3.19 1.89-13.63 1.89-16.81 0-1.83-1.09-3.7.58-2.94 2.24.75 1.63 6.45 5.42 11.37 5.42s10.55-3.79 11.3-5.42c.75-1.66-1.09-3.33-2.92-2.24z" clip-path="url(#b)" fill="#795649"/><g clip-path="url(#b)"><defs><path id="g" d="M64 4.03h-.04c-45.43.24-36.12 52.14-36.12 52.14s5.1 8.99 5.1 8.81c-.03-1.41.46-6.89.46-6.89l-2.68-2.92s3.89-25.44 6.79-24.91c4.45.81 26.54 2 26.57 2 7.83 0 14.92-.36 19.37-1.17 2.9-.53 9.64 1.7 10.68 4.45 1.33 3.54 3.13 19.71 3.13 19.71l-2.68 2.83s.49 5.51.46 6.89c0 .18 5.1-8.81 5.1-8.81S109.44 4.27 64 4.03z"/></defs></g><g clip-path="url(#b)"><radialGradient id="h" cx="64.26" cy="5.274" gradientUnits="userSpaceOnUse" r="48.85"><stop offset="0" stop-color="#6e4d42"/><stop offset="1" stop-color="#553a31"/></radialGradient><path d="M63.83 5.03c-45.26.36-35.98 52.14-35.98 52.14s5.1 8.99 5.1 8.81c-.16-7.25-.14-32.23 13.11-35.54 8.02-2.01 16.51 6.46 17.77 7.78V5.03z" fill="url(#h)"/><radialGradient id="i" cx="1867.994" cy="5.274" gradientTransform="matrix(-1 0 0 1 1931.4 0)" gradientUnits="userSpaceOnUse" r="48.85"><stop offset="0" stop-color="#6e4d42"/><stop offset="1" stop-color="#553a31"/></radialGradient><path d="M63.83 5.03c45.26.36 35.98 52.14 35.98 52.14s-5.1 8.99-5.1 8.81c.16-7.25.14-32.23-13.11-35.54-8.02-2.01-16.51 6.46-17.77 7.78V5.03z" fill="url(#i)"/><path d="M64.02 4.03h-.04c-45.43.24-36.13 52.14-36.13 52.14s5 8.81 5.1 8.81c-.03-1.48.07-3.2.26-5.03-.12-.29-2.46-4.75-2.48-4.79-.24-1.6-.93-6.98-.55-13.56.41-7.04 2.17-16.96 8.22-24.22 5.67-6.8 14.27-10.28 25.56-10.35H64c11.32.06 19.93 3.54 25.6 10.35 10.81 12.96 8.18 34.33 7.67 37.79-.02.04-2.46 4.58-2.49 4.65.2 1.89.31 3.65.27 5.17.09 0 5.1-8.81 5.1-8.81s9.3-51.91-36.13-52.15z" fill="#3f2720"/></g><g clip-path="url(#b)"><defs><path id="j" d="M72.42 76.14c-3.19 1.89-13.63 1.89-16.81 0-1.83-1.09-3.7.58-2.94 2.24.75 1.63 6.45 5.42 11.37 5.42s10.55-3.79 11.3-5.42c.75-1.66-1.09-3.33-2.92-2.24z"/></defs><clipPath id="k"><use xlink:href="#j" overflow="visible"/></clipPath><g clip-path="url(#k)" fill="#fff"><path d="M55.33 75.66l1 4.99 2.34-3.94zM72.67 75.66l-1 4.99-2.34-3.94z"/></g></g><g clip-path="url(#b)"><linearGradient id="l" gradientUnits="userSpaceOnUse" x1="64" x2="64" y1="102" y2="112.505"><stop offset=".003" stop-color="#e51e25"/><stop offset=".444" stop-color="#e11e25"/><stop offset=".652" stop-color="#d71e25"/><stop offset=".811" stop-color="#c61e24"/><stop offset=".945" stop-color="#b11e23"/><stop offset="1" stop-color="#a51e22"/></linearGradient><path d="M77.78 106.06c0-2.26-.48-4.71-1.29-6.62-.13-.32-.48-.48-.84-.45-3.71.58-7.36 2.23-9.49 4.36-.16.16-.36.23-.55.23h-3.2c-.23 0-.42-.1-.55-.23-2.16-2.13-5.78-3.74-9.52-4.36-.36-.03-.71.13-.84.45-.81 1.9-1.29 4.36-1.29 6.62h.13v.06-.06h-.13c0 2.58.48 4.78 1.29 6.71.13.32.48.52.84.48 3.74-.58 7.36-2.2 9.49-4.33.16-.16.36-.23.55-.23h3.23c.23 0 .42.1.55.23 2.13 2.13 5.75 3.74 9.49 4.33.36.06.68-.16.84-.48.81-1.93 1.29-4.13 1.29-6.71v.06-.06z" fill="url(#l)"/><path d="M64.82 109.69h-1.64c-1.01 0-1.84-.83-1.84-1.84v-3.69c0-1.01.83-1.84 1.84-1.84h1.64c1.01 0 1.84.83 1.84 1.84v3.69c0 1.01-.83 1.84-1.84 1.84z" fill="#e51e25"/></g></svg>

<?xml version="1.0" encoding="UTF-8" standalone="no"?>
<!DOCTYPE svg PUBLIC "-//W3C//DTD SVG 1.1//EN" "http://www.w3.org/Graphics/SVG/1.1/DTD/svg11.dtd">
<svg width="100%" height="100%" viewBox="0 0 128 128" version="1.1" xmlns="http://www.w3.org/2000/svg" xmlns:xlink="http://www.w3.org/1999/xlink" xml:space="preserve" xmlns:serif="http://www.serif.com/" style="fill-rule:evenodd;clip-rule:evenodd;stroke-linejoin:round;stroke-miterlimit:2;">
    <g>
        <path d="M4,74.82C4,74.82 27.95,65.81 64,65.98C81.58,66.06 101.33,69 124,74.82C124,74.82 100.61,120.17 64,120.17C27.39,120.17 7.92,83.79 4,74.82Z" style="fill:rgb(66,66,66);fill-rule:nonzero;"/>
    </g>
    <g>
        <path d="M63.83,110.33C33.16,110.33 13.22,88.48 6.14,75.66C11.99,73.74 33.33,67.47 62.96,67.47C82.77,67.47 102.48,70.23 121.59,75.67C116.48,82.81 94.75,110.33 63.83,110.33Z" style="fill:rgb(211,48,44);fill-rule:nonzero;"/>
    </g>
    <g>
        <clipPath id="_clip1">
            <rect x="4" y="4" width="120" height="120"/>
        </clipPath>
        <g clip-path="url(#_clip1)">
            <path d="M13.5,130.5L13.5,120.99C13.5,103.7 40.71,97.53 64,97.5L64.14,97.5C77.53,97.5 89.96,99.65 99.15,103.55C106.15,106.53 114.5,111.97 114.5,120.99L114.5,130.5L13.5,130.5Z" style="fill:rgb(66,66,66);fill-rule:nonzero;"/>
        </g>
    </g>
    <g>
        <path d="M63.17,107.23C59.17,107.23 55.91,104.01 55.91,100.06L55.91,91.08L72.07,91.08L72.07,100.06C72.07,104.02 68.82,107.23 64.81,107.23L63.17,107.23Z" style="fill:rgb(229,150,0);fill-rule:nonzero;"/>
    </g>
    <clipPath id="_clip2">
        <rect x="4" y="4" width="120" height="120"/>
    </clipPath>
    <g clip-path="url(#_clip2)">
        <path d="M55,106L48.17,126L79.5,126L73,106L55,106Z" style="fill:white;fill-rule:nonzero;"/>
    </g>
    <g>
        <path d="M77.78,106.06C77.78,103.8 77.3,101.35 76.49,99.44C76.36,99.12 76.01,98.96 75.65,98.99C71.94,99.57 68.29,101.22 66.16,103.35C66,103.51 65.8,103.58 65.61,103.58L62.41,103.58C62.18,103.58 61.99,103.48 61.86,103.35C59.7,101.22 56.08,99.61 52.34,98.99C51.98,98.96 51.63,99.12 51.5,99.44C50.69,101.34 50.21,103.8 50.21,106.06L50.34,106.06L50.34,106.12L50.34,106.06L50.21,106.06C50.21,108.64 50.69,110.84 51.5,112.77C51.63,113.09 51.98,113.29 52.34,113.25C56.08,112.67 59.7,111.05 61.83,108.92C61.99,108.76 62.19,108.69 62.38,108.69L65.61,108.69C65.84,108.69 66.03,108.79 66.16,108.92C68.29,111.05 71.91,112.66 75.65,113.25C76.01,113.31 76.33,113.09 76.49,112.77C77.3,110.84 77.78,108.64 77.78,106.06L77.78,106.12L77.78,106.06Z" style="fill:rgb(211,48,44);fill-rule:nonzero;"/>
        <path d="M64.82,109.69L63.18,109.69C62.17,109.69 61.34,108.86 61.34,107.85L61.34,104.16C61.34,103.15 62.17,102.32 63.18,102.32L64.82,102.32C65.83,102.32 66.66,103.15 66.66,104.16L66.66,107.85C66.66,108.86 65.83,109.69 64.82,109.69Z" style="fill:rgb(211,48,44);fill-rule:nonzero;"/>
    </g>
    <g transform="matrix(0.808337,0,0,0.808337,12.2664,-2.46459)">
        <path d="M106.91,66.04C106.91,66.04 114.78,67.4 114.78,75.88C114.78,83.36 109.04,86.31 103.3,86.31L103.3,66.04L106.91,66.04ZM21.09,66.04C21.09,66.04 13.22,67.4 13.22,75.88C13.22,83.36 18.96,86.31 24.7,86.31L24.7,66.04L21.09,66.04Z" style="fill:rgb(229,150,0);fill-rule:nonzero;"/>
    </g>
    <g transform="matrix(0.808337,0,0,0.808337,12.2664,-2.46459)">
        <path d="M64,10.55C30.09,10.55 21.22,36.84 21.22,73.77C21.22,112.06 45.83,121.96 64,121.96C81.9,121.96 106.78,112.34 106.78,73.77C106.78,36.83 97.91,10.55 64,10.55Z" style="fill:rgb(252,194,27);fill-rule:nonzero;"/>
    </g>
    <g transform="matrix(0.808337,0,0,0.808337,12.2664,-2.46459)">
        <path d="M49.91,77.19C49.91,81 47.36,84.09 44.2,84.09C41.04,84.09 38.47,81 38.47,77.19C38.47,73.37 41.04,70.28 44.2,70.28C47.36,70.28 49.91,73.37 49.91,77.19M78.08,77.19C78.08,81 80.64,84.09 83.8,84.09C86.95,84.09 89.52,81 89.52,77.19C89.52,73.37 86.95,70.28 83.8,70.28C80.64,70.28 78.08,73.37 78.08,77.19" style="fill:rgb(68,68,68);fill-rule:nonzero;"/>
    </g>
    <g transform="matrix(0.808337,0,0,0.808337,12.2664,-2.46459)">
        <path d="M69.98,89.99C67.87,90.59 65.69,90.88 64,90.88C62.31,90.88 60.13,90.59 58.02,89.99C57.12,89.73 56.77,90.59 57.09,91.16C57.76,92.34 60.45,94.71 64,94.71C67.55,94.71 70.24,92.34 70.91,91.16C71.24,90.59 70.88,89.74 69.98,89.99Z" style="fill:rgb(229,150,0);fill-rule:nonzero;"/>
    </g>
    <g transform="matrix(0.808337,0,0,0.808337,12.2664,-2.46459)">
        <path d="M65.02,5.72C65.02,5.72 64.36,5.7 64.07,5.7C63.78,5.7 63.12,5.72 63.12,5.72C26.53,6.43 15.5,28.44 15.5,43.71C15.5,58.55 15.51,69.45 15.51,69.45C15.51,69.45 16.09,68.85 17.17,68.01C18.32,67.12 19.58,66.62 19.58,66.62L21.43,79L33.62,53.52C33.69,53.36 55.254,43.738 64.07,55.32C75.828,43.979 94.45,53.36 94.52,53.52L106.71,79L108.56,66.61C108.56,66.61 109.83,67.11 110.97,68C112.05,68.84 112.63,69.44 112.63,69.44C112.63,69.44 112.64,58.54 112.64,43.7C112.65,28.44 101.62,6.43 65.02,5.72Z" style="fill:rgb(109,76,65);fill-rule:nonzero;"/>
    </g>
    <g transform="matrix(0.808337,0,0,0.808337,12.2664,-2.46459)">
        <path d="M76.38,100.52L51.62,100.52C50.2,100.52 49.59,101.47 50.53,102.9C51.84,104.9 56.72,108.75 64,108.75C71.28,108.75 76.16,104.9 77.47,102.9C78.41,101.47 77.8,100.52 76.38,100.52Z" style="fill:rgb(81,63,53);fill-rule:nonzero;"/>
    </g>
    <g transform="matrix(1,0,0,1,-0.00404168,1.46574)">
        <clipPath id="_clip3">
            <path d="M74.011,77.324L53.997,77.324C52.849,77.324 52.356,78.092 53.116,79.248C54.175,80.864 58.119,83.976 64.004,83.976C69.889,83.976 73.833,80.864 74.892,79.248C75.652,78.092 75.159,77.324 74.011,77.324Z" clip-rule="nonzero"/>
        </clipPath>
        <g clip-path="url(#_clip3)">
            <g>
                <path d="M55.33,75.66L56.33,80.65L58.67,76.71L55.33,75.66ZM72.67,75.66L71.67,80.65L69.33,76.71L72.67,75.66Z" style="fill:white;fill-rule:nonzero;"/>
            </g>
        </g>
    </g>
</svg>
